Dominus_Dark_Funeral/22/apps/gnome-panel-force-quit.svg

<svg xmlns="http://www.w3.org/2000/svg" width="24" height="24"><defs><linearGradient id="a"><stop offset="0" stop-color="#100000"/><stop offset="1" stop-opacity="0"/></linearGradient></defs><path d="M6.78 2a4.34 4.34 0 0 0-3.85 2.43 4.33 4.33 0 0 0 .74 4.64l2.66 2.92-2.66 2.93a4.4 4.4 0 0 0-1.13 3.27 4.18 4.18 0 0 0 1.38 2.7c.71.65 1.67 1.1 2.81 1.11a4.4 4.4 0 0 0 3.16-1.43L12 18.24l2.11 2.33c.76.86 2.01 1.44 3.16 1.43 1.14 0 2.1-.46 2.81-1.1a4.18 4.18 0 0 0 1.38-2.7 4.4 4.4 0 0 0-1.13-3.28l-2.66-2.93 2.66-2.92a4.32 4.32 0 0 0 .8-4.5A4.31 4.31 0 0 0 17.35 2a4.2 4.2 0 0 0-3.24 1.42L12 5.74 9.9 3.42A4.2 4.2 0 0 0 6.93 2h-.16zM17.3 5.12a1.05 1.05 0 0 1 .75 1.77L13.43 12l4.62 5.08a1.05 1.05 0 1 1-1.55 1.42L12 13.55l-4.48 4.94a1.05 1.05 0 1 1-1.56-1.42l4.62-5.09L5.97 6.9a1.05 1.05 0 1 1 1.56-1.41L12 10.42l4.49-4.94c.2-.23.5-.36.8-.36z" fill="#e6e6e6"/></svg>

<?xml version="1.0" encoding="UTF-8" standalone="no"?>
<svg
   xmlns:dc="http://purl.org/dc/elements/1.1/"
   xmlns:cc="http://creativecommons.org/ns#"
   xmlns:rdf="http://www.w3.org/1999/02/22-rdf-syntax-ns#"
   xmlns:svg="http://www.w3.org/2000/svg"
   xmlns="http://www.w3.org/2000/svg"
   xmlns:sodipodi="http://sodipodi.sourceforge.net/DTD/sodipodi-0.dtd"
   xmlns:inkscape="http://www.inkscape.org/namespaces/inkscape"
   width="24"
   height="24"
   version="1.1"
   id="svg11"
   sodipodi:docname="gnome-panel-force-quit.svg"
   inkscape:version="0.92.4 (5da689c313, 2019-01-14)">
  <metadata
     id="metadata15">
    <rdf:RDF>
      <cc:Work
         rdf:about="">
        <dc:format>image/svg+xml</dc:format>
        <dc:type
           rdf:resource="http://purl.org/dc/dcmitype/StillImage" />
        <dc:title></dc:title>
      </cc:Work>
    </rdf:RDF>
  </metadata>
  <sodipodi:namedview
     pagecolor="#ffffff"
     bordercolor="#666666"
     borderopacity="1"
     objecttolerance="10"
     gridtolerance="10"
     guidetolerance="10"
     inkscape:pageopacity="0"
     inkscape:pageshadow="2"
     inkscape:window-width="1138"
     inkscape:window-height="480"
     id="namedview13"
     showgrid="false"
     inkscape:zoom="9.8333333"
     inkscape:cx="1.0677966"
     inkscape:cy="12"
     inkscape:window-x="0"
     inkscape:window-y="25"
     inkscape:window-maximized="0"
     inkscape:current-layer="svg11" />
  <defs
     id="defs7">
    <linearGradient
       id="a">
      <stop
         offset="0"
         stop-color="#100000"
         id="stop2" />
      <stop
         offset="1"
         stop-opacity="0"
         id="stop4" />
    </linearGradient>
  </defs>
  <path
     d="M 6.78,2 A 4.34,4.34 0 0 0 2.93,4.43 4.33,4.33 0 0 0 3.67,9.07 l 2.66,2.92 -2.66,2.93 a 4.4,4.4 0 0 0 -1.13,3.27 4.18,4.18 0 0 0 1.38,2.7 c 0.71,0.65 1.67,1.1 2.81,1.11 a 4.4,4.4 0 0 0 3.16,-1.43 l 2.11,-2.33 2.11,2.33 c 0.76,0.86 2.01,1.44 3.16,1.43 1.14,0 2.1,-0.46 2.81,-1.1 a 4.18,4.18 0 0 0 1.38,-2.7 4.4,4.4 0 0 0 -1.13,-3.28 L 17.67,11.99 20.33,9.07 A 4.32,4.32 0 0 0 21.13,4.57 4.31,4.31 0 0 0 17.35,2 4.2,4.2 0 0 0 14.11,3.42 L 12,5.74 9.9,3.42 A 4.2,4.2 0 0 0 6.93,2 H 6.77 Z M 17.3,5.12 a 1.05,1.05 0 0 1 0.75,1.77 L 13.43,12 18.05,17.08 A 1.051059,1.051059 0 1 1 16.5,18.5 L 12,13.55 7.52,18.49 A 1.0547512,1.0547512 0 1 1 5.96,17.07 L 10.58,11.98 5.97,6.9 A 1.0513919,1.0513919 0 1 1 7.53,5.49 L 12,10.42 16.49,5.48 c 0.2,-0.23 0.5,-0.36 0.8,-0.36 z"
     id="path9"
     inkscape:connector-curvature="0"
     style="fill:#e6e6e6" />
</svg>
